X:1
T: Lady Jane Nevill's Reel
C:William Marshall
R:Reel
Q: 232
K:G
M:4/4
L:1/8
|:d|g2 dg Bg dg|Bg dg a2 ab|g2 dg Bg dg|DA FA G3d|
g2 dg Bg dg|Bg dg a2 ab|g2 dg Bg dg|DA FA G3d|
B1/2c1/2d dB c1/2d1/2e ec|B1/2c1/2d dB A2 Ac|B1/2c1/2d dB c1/2d1/2e ec|dg fa g3d|
B1/2c1/2d dB c1/2d1/2e ec|B1/2c1/2d dB A2 Ac|Bd Bd ce ce|dg fa g3:|
